X: 1
T: Jimmy's Return
R: reel
M: 4/4
L: 1/8
K: Bmin
|:fzBcdfed|c/B/Aceaece|~ffBcdfed|B/c/decdB~BB|
|A~BBdfded|c~cceaecA|BcdAB/c/deg|~ffecdB~BA:|
|:A~Bbafaed|c/B/AceaecA|~BBbafaed|B/c/decdBc/B/A|
~BBbafaed|c/B/AceaecA|BcdAB/c/deg|fdecdB~BB:|


Tune 1299	Setting 25317

